X: 9452
T: Danse De Chez Nous
R: jig
M: 6/8
K: Gmajor
g2 B dGG|B3 B2 G|D>EF GAB|c3 c2 d|
eAA cDD|F3 F2 d|f>ed cBA|1 B3 B2:|2 G3 G2||
DGB d2 B|e2 B dBG|DG/A/B dBB|eBB cAF|
DFA cAA|dAA cAF|DF/G/A cBA|1 BGE D2:|2 G3 G2||
|:DGB d2 B|e2 B d3|DGB d2 B|e2 B c3|
DFA c2 A|d2 A c3|DFA cBA|1 GBe d3:|2 G3- G2||
g2 B d2 G|B3- B2 E|DEF GAB|
[1 c3- c2 d|e2 A c2 G|F3- F2 d|fed cBA|B3- B2:|
[2 e3- e2 f|gec gec|gdB gdB|fed cBA|G6||

